X: 406
T: Tongadale
R: reel
C: \251Taigh na Teud/
C:Farquhar MacDonald
M: C|
L: 1/8
K: Amin
|:AB | "Am"cBcB AEAB | cBcB "F"AFAc | "G"BGDG EDEG | DEGA "Em"BG G/G/G |
"Am"cBcB AEAB | cBcB "F"AFAc | "G"BGDG [1EDDd | "G7"dBcB "Am"A2:|2"Em"EDEG|EDCB,"Am" A,2 |]
|:A,B, | "Am"CA,EA, FA,EA, | GA,EA, "F"FEDC | "G"B,G,DG, EG,DG, | FG,EG, "Em"DCA,B, |
"Am"CA,EA, FA,EA, | GA,EA, "F"FEDC | "G"B,G,DG, EDCB, |["normal""Am"CA,A,G, A,2 :|]["Trans""Am"A,3 z "E7"A3^F|]

